lib/flags/az-azerbaijan.svg

<svg xmlns="http://www.w3.org/2000/svg" fill="none" aria-hidden="true" viewBox="0 0 42 30"><g id="Country=AZ - Azerbaijan, Size=sm (36x24)" filter="url(#filter0_dd_91_29690)"><g clip-path="url(#clip0_91_29690)"><g id="flag"><mask id="mask0_91_29690" width="36" height="24" x="3" y="2" maskUnits="userSpaceOnUse" style="mask-type:alpha"><rect id="mask" width="36" height="24" x="3" y="2" fill="white"/></mask><g mask="url(#mask0_91_29690)"><g id="contents"><path id="background" fill="#AF0100" fill-rule="evenodd" d="M3 2V26H39V2H3Z" clip-rule="evenodd"/><mask id="mask1_91_29690" width="36" height="24" x="3" y="2" maskUnits="userSpaceOnUse" style="mask-type:alpha"><path id="background_2" fill="white" fill-rule="evenodd" d="M3 2V26H39V2H3Z" clip-rule="evenodd"/></mask><g mask="url(#mask1_91_29690)"><path id="top" fill="#3CA5D9" fill-rule="evenodd" d="M3 2V10H39V2H3Z" clip-rule="evenodd"/><path id="bottom" fill="#73BE4A" fill-rule="evenodd" d="M3 18V26H39V18H3Z" clip-rule="evenodd"/><g id="mark"><path id="Combined Shape" fill="#F7FCFF" fill-rule="evenodd" d="M22.2822 17.024C20.7669 16.7134 19.4364 15.5539 19.4521 14C19.4669 12.5454 20.4297 11.3679 22.0964 11.0335C23.7631 10.6991 25.4911 11.3345 25.4911 11.3345C25.0317 10.4266 23.4326 9.78994 22.121 9.793C19.6794 9.79869 17.0747 11.4555 17.0491 13.9856C17.0225 16.6087 19.831 18.0999 22.3027 18.0941C24.2841 18.0895 25.2254 16.9559 25.4207 16.4739C25.4207 16.4739 23.7976 17.3345 22.2822 17.024ZM23.2698 15.4207L24.5923 14.6027L25.9148 15.4207L25.4483 14.0499L26.7322 13.1846L25.1213 13.1555L24.5923 11.8027L24.0633 13.1555L22.4524 13.1846L23.7363 14.0499L23.2698 15.4207Z" clip-rule="evenodd"/></g></g></g></g></g></g></g><defs><filter id="filter0_dd_91_29690" width="42" height="30" x="0" y="0" color-interpolation-filters="sRGB" filterUnits="userSpaceOnUse"><feFlood flood-opacity="0" result="BackgroundImageFix"/><feColorMatrix in="SourceAlpha" result="hardAlpha" values="0 0 0 0 0 0 0 0 0 0 0 0 0 0 0 0 0 0 127 0"/><feOffset dy="1"/><feGaussianBlur stdDeviation="1"/><feColorMatrix values="0 0 0 0 0.0627451 0 0 0 0 0.0941176 0 0 0 0 0.156863 0 0 0 0.06 0"/><feBlend in2="BackgroundImageFix" result="effect1_dropShadow_91_29690"/><feColorMatrix in="SourceAlpha" result="hardAlpha" values="0 0 0 0 0 0 0 0 0 0 0 0 0 0 0 0 0 0 127 0"/><feOffset dy="1"/><feGaussianBlur stdDeviation="1.5"/><feColorMatrix values="0 0 0 0 0.0627451 0 0 0 0 0.0941176 0 0 0 0 0.156863 0 0 0 0.1 0"/><feBlend in2="effect1_dropShadow_91_29690" result="effect2_dropShadow_91_29690"/><feBlend in="SourceGraphic" in2="effect2_dropShadow_91_29690" result="shape"/></filter><clipPath id="clip0_91_29690"><rect width="36" height="24" x="3" y="2" fill="white" rx="2"/></clipPath></defs></svg>

<svg xmlns="http://www.w3.org/2000/svg" fill="none" aria-hidden="true" viewBox="0 0 42 30"><g filter="url(#a)"><g clip-path="url(#b)"><mask id="c" width="36" height="24" x="3" y="2" maskUnits="userSpaceOnUse" style="mask-type:alpha"><path fill="#fff" d="M3 2h36v24H3z"/></mask><g mask="url(#c)"><path fill="#AF0100" fill-rule="evenodd" d="M3 2v24h36V2H3Z" clip-rule="evenodd"/><mask id="d" width="36" height="24" x="3" y="2" maskUnits="userSpaceOnUse" style="mask-type:alpha"><path fill="#fff" fill-rule="evenodd" d="M3 2v24h36V2H3Z" clip-rule="evenodd"/></mask><g fill-rule="evenodd" clip-rule="evenodd" mask="url(#d)"><path fill="#3CA5D9" d="M3 2v8h36V2H3Z"/><path fill="#73BE4A" d="M3 18v8h36v-8H3Z"/><path fill="#F7FCFF" d="M22.282 17.024c-1.515-.31-2.846-1.47-2.83-3.024.015-1.455.978-2.632 2.644-2.966 1.667-.335 3.395.3 3.395.3-.46-.907-2.058-1.544-3.37-1.541-2.442.006-5.046 1.663-5.072 4.193-.026 2.623 2.782 4.114 5.254 4.108 1.981-.005 2.922-1.138 3.118-1.62 0 0-1.623.86-3.139.55Zm.988-1.603 1.322-.818 1.323.818-.467-1.371 1.284-.865-1.61-.03-.53-1.352-.529 1.352-1.61.03 1.283.865-.466 1.37Z"/></g></g></g></g><defs><clipPath id="b"><rect width="36" height="24" x="3" y="2" fill="#fff" rx="2"/></clipPath><filter id="a" width="42" height="30" x="0" y="0" color-interpolation-filters="sRGB" filterUnits="userSpaceOnUse"><feFlood flood-opacity="0" result="BackgroundImageFix"/><feColorMatrix in="SourceAlpha" result="hardAlpha" values="0 0 0 0 0 0 0 0 0 0 0 0 0 0 0 0 0 0 127 0"/><feOffset dy="1"/><feGaussianBlur stdDeviation="1"/><feColorMatrix values="0 0 0 0 0.0627451 0 0 0 0 0.0941176 0 0 0 0 0.156863 0 0 0 0.06 0"/><feBlend in2="BackgroundImageFix" result="effect1_dropShadow_91_29690"/><feColorMatrix in="SourceAlpha" result="hardAlpha" values="0 0 0 0 0 0 0 0 0 0 0 0 0 0 0 0 0 0 127 0"/><feOffset dy="1"/><feGaussianBlur stdDeviation="1.5"/><feColorMatrix values="0 0 0 0 0.0627451 0 0 0 0 0.0941176 0 0 0 0 0.156863 0 0 0 0.1 0"/><feBlend in2="effect1_dropShadow_91_29690" result="effect2_dropShadow_91_29690"/><feBlend in="SourceGraphic" in2="effect2_dropShadow_91_29690" result="shape"/></filter></defs></svg>
